Newaita-dark/apps/64/ntfs-config.svg

<svg height="64" viewBox="0 0 64 64" width="64" xmlns="http://www.w3.org/2000/svg" xmlns:xlink="http://www.w3.org/1999/xlink"><linearGradient id="a" gradientUnits="userSpaceOnUse" x1="31.75304" x2="31.75304" y1="56.067872" y2="58.71396000006"><stop offset="0" stop-opacity=".27451"/><stop offset="1" stop-opacity="0"/></linearGradient><linearGradient id="b"><stop offset="0" stop-opacity=".313726"/><stop offset=".222222" stop-opacity=".27451"/><stop offset="1" stop-opacity="0"/></linearGradient><radialGradient id="c" cx="450.908936" cy="189.579361" gradientTransform="matrix(.00000035 -.156265 -.281277 -.0000002 97.646083 127.190665)" gradientUnits="userSpaceOnUse" r="21.166656" xlink:href="#b"/><radialGradient id="d" cx="450.908936" cy="189.579361" gradientTransform="matrix(-.00000035 .156265 .281277 .0000002 -34.140017 -15.054958)" gradientUnits="userSpaceOnUse" r="21.166656" xlink:href="#b"/><radialGradient id="e" cx="450.908936" cy="189.579361" gradientTransform="matrix(-.00000035 -.156265 .281277 -.0000002 -34.140017 127.190665)" gradientUnits="userSpaceOnUse" r="21.166656" xlink:href="#b"/><radialGradient id="f" cx="450.908936" cy="189.579361" gradientTransform="matrix(.00000035 .156265 -.281277 .0000002 97.646079 -15.054959)" gradientUnits="userSpaceOnUse" r="21.166656" xlink:href="#b"/><linearGradient id="g"><stop offset="0" stop-color="#bdbdbd"/><stop offset="1" stop-color="#e0e0e0"/></linearGradient><linearGradient id="h" gradientTransform="matrix(.150699 0 0 .434824 -11.708026 67.282696)" gradientUnits="userSpaceOnUse" x1="306.916656" x2="305.954559" xlink:href="#g" y1="-25.791676" y2="-141.414581"/><linearGradient id="i" gradientUnits="userSpaceOnUse" x1="31.75304775055" x2="31.75304775055" xlink:href="#g" y1="42.83743125335" y2="8.43829725348"/><path d="m18.523438 56.066406h26.460937v2.648438h-26.460937zm0 0" fill="url(#a)"/><path d="m44.984375 56.066406h5.292969v-2.644531h-5.292969zm0 0" fill="url(#c)"/><path d="m18.523438 56.066406h-5.292969v2.648438h5.292969zm0 0" fill="url(#d)"/><path d="m18.523438 56.066406h-5.292969v-2.644531h5.292969zm0 0" fill="url(#e)"/><path d="m44.984375 56.066406h5.292969v2.648438h-5.292969zm0 0" fill="url(#f)"/><path d="m15.875 5.792969h31.753906c1.460938 0 2.648438 1.183593 2.648438 2.644531v44.984375c0 1.460937-1.1875 2.644531-2.648438 2.644531h-31.753906c-1.460938 0-2.644531-1.183594-2.644531-2.644531v-44.984375c0-1.460938 1.183593-2.644531 2.644531-2.644531zm0 0" fill="url(#h)"/><path d="m15.875 56.066406c-1.464844 0-2.644531-1.179687-2.644531-2.644531v-.332031c0 1.46875 1.179687 2.648437 2.644531 2.648437h31.753906c1.464844 0 2.648438-1.179687 2.648438-2.648437v.332031c0 1.464844-1.183594 2.644531-2.648438 2.644531zm0 0" fill-opacity=".196078"/><path d="m15.875 5.972656c-1.464844 0-2.644531 1.179688-2.644531 2.644532v.332031c0-1.464844 1.179687-2.648438 2.644531-2.648438h31.753906c1.464844 0 2.648438 1.183594 2.648438 2.648438v-.332031c0-1.464844-1.183594-2.644532-2.648438-2.644532zm0 0" fill="#fff" fill-opacity=".862745"/><path d="m15.875 5.605469c-1.566406 0-2.832031 1.265625-2.832031 2.832031v44.984375c0 1.566406 1.265625 2.832031 2.832031 2.832031h31.753906c1.566406 0 2.835938-1.265625 2.835938-2.832031v-44.984375c0-1.566406-1.269532-2.832031-2.835938-2.832031zm0 .375h31.753906c1.367188 0 2.460938 1.09375 2.460938 2.457031v44.984375c0 1.367187-1.09375 2.457031-2.460938 2.457031h-31.753906c-1.363281 0-2.457031-1.089844-2.457031-2.457031v-44.984375c0-1.363281 1.09375-2.457031 2.457031-2.457031zm0 0" fill="#212121"/><g fill="#bdbdbd" fill-opacity=".392157"><path d="m17.199219 8.4375c.730469 0 1.324219.59375 1.324219 1.324219s-.59375 1.324219-1.324219 1.324219-1.324219-.59375-1.324219-1.324219.59375-1.324219 1.324219-1.324219zm0 0"/><path d="m46.304688 8.4375c.734374 0 1.324218.59375 1.324218 1.324219s-.589844 1.324219-1.324218 1.324219c-.730469 0-1.320313-.59375-1.320313-1.324219s.589844-1.324219 1.320313-1.324219zm0 0"/><path d="m46.304688 50.777344c.734374 0 1.324218.589844 1.324218 1.320312 0 .730469-.589844 1.324219-1.324218 1.324219-.730469 0-1.320313-.59375-1.320313-1.324219 0-.730468.589844-1.320312 1.320313-1.320312zm0 0"/><path d="m17.199219 50.777344c.730469 0 1.324219.589844 1.324219 1.320312 0 .730469-.59375 1.324219-1.324219 1.324219s-1.324219-.59375-1.324219-1.324219c0-.730468.59375-1.320312 1.324219-1.320312zm0 0"/></g><path d="m19.84375 44.160156h23.816406c.730469 0 1.324219.59375 1.324219 1.324219v1.320313c0 .734374-.59375 1.324218-1.324219 1.324218h-23.816406c-.730469 0-1.320312-.589844-1.320312-1.324218v-1.320313c0-.730469.589843-1.324219 1.320312-1.324219zm0 0" fill-opacity=".235294"/><path d="m19.84375 44.160156c-.730469 0-1.320312.589844-1.320312 1.324219v.660156c0-.734375.589843-1.324219 1.320312-1.324219h23.816406c.734375 0 1.324219.589844 1.324219 1.324219v-.660156c0-.734375-.589844-1.324219-1.324219-1.324219zm0 0" fill-opacity=".235294"/><path d="m19.84375 48.792969c-.730469 0-1.320312-.59375-1.320312-1.324219v-.664062c0 .734374.589843 1.324218 1.320312 1.324218h23.816406c.734375 0 1.324219-.589844 1.324219-1.324218v.664062c0 .730469-.589844 1.324219-1.324219 1.324219zm0 0" fill="#fff" fill-opacity=".470588"/><path d="m158.734842 138.247517h190.513056c5.843192 0 10.592739 4.749546 10.592739 10.592738v10.561491c0 5.874439-4.749547 10.592739-10.592739 10.592739h-190.513056c-5.843192 0-10.561492-4.7183-10.561492-10.592739v-10.561491c0-5.843192 4.7183-10.592738 10.561492-10.592738zm0 0" fill="none" stroke="#212121" stroke-linecap="round" stroke-width="3" transform="matrix(.125012 0 0 .125012 0 26.877566)"/><path d="m17.199219 8.605469c-.734375 0-1.324219.589843-1.324219 1.320312 0 .058594.003906.113281.011719.167969.082031-.65625.636719-1.160156 1.3125-1.160156s1.230469.503906 1.3125 1.160156c.007812-.054688.011719-.109375.011719-.167969 0-.730469-.589844-1.320312-1.324219-1.320312zm29.105469 0c-.730469 0-1.320313.589843-1.320313 1.320312 0 .058594.003906.113281.007813.167969.082031-.65625.636718-1.160156 1.3125-1.160156.679687 0 1.234374.503906 1.3125 1.160156.007812-.054688.011718-.109375.011718-.167969 0-.730469-.589844-1.320312-1.324218-1.320312zm-29.105469 42.335937c-.734375 0-1.324219.589844-1.324219 1.324219 0 .054687.003906.109375.011719.164063.082031-.65625.636719-1.15625 1.3125-1.15625s1.230469.5 1.3125 1.15625c.007812-.054688.011719-.109376.011719-.164063 0-.734375-.589844-1.324219-1.324219-1.324219zm29.105469 0c-.730469 0-1.320313.589844-1.320313 1.324219 0 .054687.003906.109375.007813.164063.082031-.65625.636718-1.15625 1.3125-1.15625.679687 0 1.234374.5 1.3125 1.15625.007812-.054688.011718-.109376.011718-.164063 0-.734375-.589844-1.324219-1.324218-1.324219zm0 0" fill="#fff" fill-opacity=".392157"/><path d="m17.199219 53.917969c-.734375 0-1.324219-.589844-1.324219-1.324219 0-.054688.003906-.109375.011719-.164062.082031.652343.636719 1.15625 1.3125 1.15625s1.230469-.503907 1.3125-1.15625c.007812.054687.011719.109374.011719.164062 0 .734375-.589844 1.324219-1.324219 1.324219zm29.105469 0c-.730469 0-1.320313-.589844-1.320313-1.324219 0-.054688.003906-.109375.007813-.164062.082031.652343.636718 1.15625 1.3125 1.15625.679687 0 1.234374-.503907 1.3125-1.15625.007812.054687.011718.109374.011718.164062 0 .734375-.589844 1.324219-1.324218 1.324219zm-29.105469-42.335938c-.734375 0-1.324219-.589843-1.324219-1.324219 0-.054687.003906-.113281.011719-.164062.082031.652344.636719 1.15625 1.3125 1.15625s1.230469-.503906 1.3125-1.15625c.007812.050781.011719.109375.011719.164062 0 .734376-.589844 1.324219-1.324219 1.324219zm29.105469 0c-.730469 0-1.320313-.589843-1.320313-1.324219 0-.054687.003906-.113281.007813-.164062.082031.652344.636718 1.15625 1.3125 1.15625.679687 0 1.234374-.503906 1.3125-1.15625.007812.050781.011718.109375.011718.164062 0 .734376-.589844 1.324219-1.324218 1.324219zm0 0" fill-opacity=".235294"/><path d="m137.580612-147.506445c5.843192 0 10.592738 4.749546 10.592738 10.592738s-4.749546 10.592739-10.592738 10.592739-10.592739-4.749547-10.592739-10.592739 4.749547-10.592738 10.592739-10.592738zm0 0" fill="none" stroke="#212121" stroke-linecap="round" stroke-width="2.999999" transform="matrix(.125012 0 0 .125012 0 26.877566)"/><path d="m370.402128-147.506445c5.874439 0 10.592739 4.749546 10.592739 10.592738s-4.7183 10.592739-10.592739 10.592739c-5.843192 0-10.561491-4.749547-10.561491-10.592739s4.718299-10.592738 10.561491-10.592738zm0 0" fill="none" stroke="#212121" stroke-linecap="round" stroke-width="3" transform="matrix(.125012 0 0 .125012 0 26.877566)"/><path d="m370.402128 191.179962c5.874439 0 10.592739 4.718299 10.592739 10.561491s-4.7183 10.592739-10.592739 10.592739c-5.843192 0-10.561491-4.749547-10.561491-10.592739s4.718299-10.561491 10.561491-10.561491zm0 0" fill="none" stroke="#212121" stroke-linecap="round" stroke-width="3" transform="matrix(.125012 0 0 .125012 0 26.877566)"/><path d="m137.580612 191.179962c5.843192 0 10.592738 4.718299 10.592738 10.561491s-4.749546 10.592739-10.592738 10.592739-10.592739-4.749547-10.592739-10.592739 4.749547-10.561491 10.592739-10.561491zm0 0" fill="none" stroke="#212121" stroke-linecap="round" stroke-width="3" transform="matrix(.125012 0 0 .125012 0 26.877566)"/><path d="m31.753906 13.730469c6.574219 0 11.90625 5.332031 11.90625 11.90625 0 6.578125-5.332031 11.910156-11.90625 11.910156-6.578125 0-11.910156-5.332031-11.910156-11.910156 0-6.574219 5.332031-11.90625 11.910156-11.90625zm0 0" fill="url(#i)"/><path d="m19.851562 26.132812c-.003906.109376-.007812.21875-.007812.328126 0 6.597656 5.3125 11.910156 11.910156 11.910156s11.90625-5.3125 11.90625-11.910156c0-.109376 0-.21875-.003906-.328126-.175781 6.441407-5.417969 11.574219-11.902344 11.574219-6.488281 0-11.730468-5.132812-11.902344-11.574219zm0 0" fill-opacity=".235294"/><path d="m19.851562 26.097656c-.003906-.109375-.007812-.222656-.007812-.332031 0-6.597656 5.3125-11.90625 11.910156-11.90625s11.90625 5.308594 11.90625 11.90625c0 .109375 0 .222656-.003906.332031-.175781-6.445312-5.417969-11.578125-11.902344-11.578125-6.488281 0-11.730468 5.132813-11.902344 11.578125zm0 0" fill="#fff" fill-opacity=".588235"/><path d="m254.006994-105.166739c52.588728 0 95.240904 42.652177 95.240904 95.240905 0 52.619975-42.652176 95.272152-95.240904 95.272152-52.619975 0-95.272152-42.652177-95.272152-95.272152 0-52.588728 42.652177-95.240905 95.272152-95.240905zm0 0" fill="none" stroke="#212121" stroke-linecap="round" stroke-width="3" transform="matrix(.125012 0 0 .125012 0 26.877566)"/></svg>

<?xml version="1.0" encoding="UTF-8"?>
<svg xmlns="http://www.w3.org/2000/svg" xmlns:xlink="http://www.w3.org/1999/xlink" width="64pt" height="64pt" viewBox="0 0 64 64" version="1.1">
<defs>
<linearGradient id="linear0" gradientUnits="userSpaceOnUse" x1="254" y1="233.5" x2="254" y2="254.666672" gradientTransform="matrix(0.125012,0,0,0.125012,-0.00000763012,26.87757)">
<stop offset="0" style="stop-color:rgb(0%,0%,0%);stop-opacity:0.27451;"/>
<stop offset="1" style="stop-color:rgb(0%,0%,0%);stop-opacity:0;"/>
</linearGradient>
<radialGradient id="radial0" gradientUnits="userSpaceOnUse" cx="450.908936" cy="189.579361" fx="450.908936" fy="189.579361" r="21.166656" gradientTransform="matrix(0.000000348341,-0.156265,-0.281277,-0.000000203077,97.646083,127.190665)">
<stop offset="0" style="stop-color:rgb(0%,0%,0%);stop-opacity:0.313726;"/>
<stop offset="0.222222" style="stop-color:rgb(0%,0%,0%);stop-opacity:0.27451;"/>
<stop offset="1" style="stop-color:rgb(0%,0%,0%);stop-opacity:0;"/>
</radialGradient>
<radialGradient id="radial1" gradientUnits="userSpaceOnUse" cx="450.908936" cy="189.579361" fx="450.908936" fy="189.579361" r="21.166656" gradientTransform="matrix(-0.000000348341,0.156265,0.281277,0.000000203077,-34.140017,-15.054958)">
<stop offset="0" style="stop-color:rgb(0%,0%,0%);stop-opacity:0.313726;"/>
<stop offset="0.222222" style="stop-color:rgb(0%,0%,0%);stop-opacity:0.27451;"/>
<stop offset="1" style="stop-color:rgb(0%,0%,0%);stop-opacity:0;"/>
</radialGradient>
<radialGradient id="radial2" gradientUnits="userSpaceOnUse" cx="450.908936" cy="189.579361" fx="450.908936" fy="189.579361" r="21.166656" gradientTransform="matrix(-0.000000348341,-0.156265,0.281277,-0.000000203077,-34.140017,127.190665)">
<stop offset="0" style="stop-color:rgb(0%,0%,0%);stop-opacity:0.313726;"/>
<stop offset="0.222222" style="stop-color:rgb(0%,0%,0%);stop-opacity:0.27451;"/>
<stop offset="1" style="stop-color:rgb(0%,0%,0%);stop-opacity:0;"/>
</radialGradient>
<radialGradient id="radial3" gradientUnits="userSpaceOnUse" cx="450.908936" cy="189.579361" fx="450.908936" fy="189.579361" r="21.166656" gradientTransform="matrix(0.000000348341,0.156265,-0.281277,0.000000203077,97.646079,-15.054959)">
<stop offset="0" style="stop-color:rgb(0%,0%,0%);stop-opacity:0.313726;"/>
<stop offset="0.222222" style="stop-color:rgb(0%,0%,0%);stop-opacity:0.27451;"/>
<stop offset="1" style="stop-color:rgb(0%,0%,0%);stop-opacity:0;"/>
</radialGradient>
<linearGradient id="linear1" gradientUnits="userSpaceOnUse" x1="306.916656" y1="-25.791676" x2="305.954559" y2="-141.414581" gradientTransform="matrix(0.150699,0,0,0.434824,-11.708026,67.282696)">
<stop offset="0" style="stop-color:rgb(61.960787%,61.960787%,61.960787%);stop-opacity:1;"/>
<stop offset="1" style="stop-color:rgb(87.843138%,87.843138%,87.843138%);stop-opacity:1;"/>
</linearGradient>
<linearGradient id="linear2" gradientUnits="userSpaceOnUse" x1="254" y1="-105.166656" x2="254" y2="85.333336" gradientTransform="matrix(0.125012,0,0,0.125012,0,26.877566)">
<stop offset="0" style="stop-color:rgb(14.901961%,65.098041%,60.392159%);stop-opacity:1;"/>
<stop offset="1" style="stop-color:rgb(0%,53.725493%,48.235294%);stop-opacity:1;"/>
</linearGradient>
<linearGradient id="linear3" gradientUnits="userSpaceOnUse" x1="254" y1="159.416672" x2="254" y2="191.166672" gradientTransform="matrix(1,0,0,1,0,-21.166668)">
<stop offset="0" style="stop-color:rgb(25.882354%,25.882354%,25.882354%);stop-opacity:1;"/>
<stop offset="1" style="stop-color:rgb(38.039216%,38.039216%,38.039216%);stop-opacity:1;"/>
</linearGradient>
<linearGradient id="linear4" gradientUnits="userSpaceOnUse" x1="254" y1="233.5" x2="254" y2="-168.666656" gradientTransform="matrix(0.125012,0,0,0.125012,0,26.877566)">
<stop offset="0" style="stop-color:rgb(61.960787%,61.960787%,61.960787%);stop-opacity:1;"/>
<stop offset="1" style="stop-color:rgb(87.843138%,87.843138%,87.843138%);stop-opacity:1;"/>
</linearGradient>
</defs>
<g id="surface1">
<path style=" stroke:none;fill-rule:nonzero;fill:url(#linear0);" d="M 18.523438 56.066406 L 44.984375 56.066406 L 44.984375 58.714844 L 18.523438 58.714844 Z M 18.523438 56.066406 "/>
<path style=" stroke:none;fill-rule:nonzero;fill:url(#radial0);" d="M 44.984375 56.066406 L 50.277344 56.066406 L 50.277344 53.421875 L 44.984375 53.421875 Z M 44.984375 56.066406 "/>
<path style=" stroke:none;fill-rule:nonzero;fill:url(#radial1);" d="M 18.523438 56.066406 L 13.230469 56.066406 L 13.230469 58.714844 L 18.523438 58.714844 Z M 18.523438 56.066406 "/>
<path style=" stroke:none;fill-rule:nonzero;fill:url(#radial2);" d="M 18.523438 56.066406 L 13.230469 56.066406 L 13.230469 53.421875 L 18.523438 53.421875 Z M 18.523438 56.066406 "/>
<path style=" stroke:none;fill-rule:nonzero;fill:url(#radial3);" d="M 44.984375 56.066406 L 50.277344 56.066406 L 50.277344 58.714844 L 44.984375 58.714844 Z M 44.984375 56.066406 "/>
<path style=" stroke:none;fill-rule:nonzero;fill:url(#linear1);" d="M 15.875 5.792969 L 47.628906 5.792969 C 49.089844 5.792969 50.277344 6.976562 50.277344 8.4375 L 50.277344 53.421875 C 50.277344 54.882812 49.089844 56.066406 47.628906 56.066406 L 15.875 56.066406 C 14.414062 56.066406 13.230469 54.882812 13.230469 53.421875 L 13.230469 8.4375 C 13.230469 6.976562 14.414062 5.792969 15.875 5.792969 Z M 15.875 5.792969 "/>
<path style=" stroke:none;fill-rule:nonzero;fill:rgb(0%,0%,0%);fill-opacity:0.196078;" d="M 15.875 56.066406 C 14.410156 56.066406 13.230469 54.886719 13.230469 53.421875 L 13.230469 53.089844 C 13.230469 54.558594 14.410156 55.738281 15.875 55.738281 L 47.628906 55.738281 C 49.09375 55.738281 50.277344 54.558594 50.277344 53.089844 L 50.277344 53.421875 C 50.277344 54.886719 49.09375 56.066406 47.628906 56.066406 Z M 15.875 56.066406 "/>
<path style=" stroke:none;fill-rule:nonzero;fill:rgb(90.196079%,90.196079%,90.196079%);fill-opacity:0.937239;" d="M 15.875 5.792969 C 14.410156 5.792969 13.230469 6.972656 13.230469 8.4375 L 13.230469 8.769531 C 13.230469 7.304688 14.410156 6.121094 15.875 6.121094 L 47.628906 6.121094 C 49.09375 6.121094 50.277344 7.304688 50.277344 8.769531 L 50.277344 8.4375 C 50.277344 6.972656 49.09375 5.792969 47.628906 5.792969 Z M 15.875 5.792969 "/>
<path style=" stroke:none;fill-rule:nonzero;fill:rgb(12.941177%,12.941177%,12.941177%);fill-opacity:1;" d="M 15.875 5.605469 C 14.308594 5.605469 13.042969 6.871094 13.042969 8.4375 L 13.042969 53.421875 C 13.042969 54.988281 14.308594 56.253906 15.875 56.253906 L 47.628906 56.253906 C 49.195312 56.253906 50.464844 54.988281 50.464844 53.421875 L 50.464844 8.4375 C 50.464844 6.871094 49.195312 5.605469 47.628906 5.605469 Z M 15.875 5.980469 L 47.628906 5.980469 C 48.996094 5.980469 50.089844 7.074219 50.089844 8.4375 L 50.089844 53.421875 C 50.089844 54.789062 48.996094 55.878906 47.628906 55.878906 L 15.875 55.878906 C 14.511719 55.878906 13.417969 54.789062 13.417969 53.421875 L 13.417969 8.4375 C 13.417969 7.074219 14.511719 5.980469 15.875 5.980469 Z M 15.875 5.980469 "/>
<path style=" stroke:none;fill-rule:nonzero;fill:url(#linear2);" d="M 31.753906 13.730469 C 38.328125 13.730469 43.660156 19.0625 43.660156 25.636719 C 43.660156 32.214844 38.328125 37.546875 31.753906 37.546875 C 25.175781 37.546875 19.84375 32.214844 19.84375 25.636719 C 19.84375 19.0625 25.175781 13.730469 31.753906 13.730469 Z M 31.753906 13.730469 "/>
<path style="fill-rule:nonzero;fill:url(#linear3);stroke-width:3;stroke-linecap:round;stroke-linejoin:miter;stroke:rgb(12.941177%,12.941177%,12.941177%);stroke-opacity:1;stroke-miterlimit:4;" d="M 158.734842 138.247517 L 349.247898 138.247517 C 355.09109 138.247517 359.840637 142.997063 359.840637 148.840255 L 359.840637 159.401746 C 359.840637 165.276185 355.09109 169.994485 349.247898 169.994485 L 158.734842 169.994485 C 152.89165 169.994485 148.17335 165.276185 148.17335 159.401746 L 148.17335 148.840255 C 148.17335 142.997063 152.89165 138.247517 158.734842 138.247517 Z M 158.734842 138.247517 " transform="matrix(0.125012,0,0,0.125012,0,26.877566)"/>
<path style="fill-rule:nonzero;fill:rgb(74.117649%,74.117649%,74.117649%);fill-opacity:0.392157;stroke-width:2.999999;stroke-linecap:round;stroke-linejoin:miter;stroke:rgb(12.941177%,12.941177%,12.941177%);stroke-opacity:1;stroke-miterlimit:4;" d="M 137.580612 -147.506445 C 143.423804 -147.506445 148.17335 -142.756899 148.17335 -136.913707 C 148.17335 -131.070515 143.423804 -126.320968 137.580612 -126.320968 C 131.73742 -126.320968 126.987873 -131.070515 126.987873 -136.913707 C 126.987873 -142.756899 131.73742 -147.506445 137.580612 -147.506445 Z M 137.580612 -147.506445 " transform="matrix(0.125012,0,0,0.125012,0,26.877566)"/>
<path style="fill-rule:nonzero;fill:rgb(74.117649%,74.117649%,74.117649%);fill-opacity:0.392157;stroke-width:3;stroke-linecap:round;stroke-linejoin:miter;stroke:rgb(12.941177%,12.941177%,12.941177%);stroke-opacity:1;stroke-miterlimit:4;" d="M 370.402128 -147.506445 C 376.276567 -147.506445 380.994867 -142.756899 380.994867 -136.913707 C 380.994867 -131.070515 376.276567 -126.320968 370.402128 -126.320968 C 364.558936 -126.320968 359.840637 -131.070515 359.840637 -136.913707 C 359.840637 -142.756899 364.558936 -147.506445 370.402128 -147.506445 Z M 370.402128 -147.506445 " transform="matrix(0.125012,0,0,0.125012,0,26.877566)"/>
<path style="fill-rule:nonzero;fill:rgb(74.117649%,74.117649%,74.117649%);fill-opacity:0.392157;stroke-width:3;stroke-linecap:round;stroke-linejoin:miter;stroke:rgb(12.941177%,12.941177%,12.941177%);stroke-opacity:1;stroke-miterlimit:4;" d="M 370.402128 191.179962 C 376.276567 191.179962 380.994867 195.898261 380.994867 201.741453 C 380.994867 207.584645 376.276567 212.334192 370.402128 212.334192 C 364.558936 212.334192 359.840637 207.584645 359.840637 201.741453 C 359.840637 195.898261 364.558936 191.179962 370.402128 191.179962 Z M 370.402128 191.179962 " transform="matrix(0.125012,0,0,0.125012,0,26.877566)"/>
<path style="fill-rule:nonzero;fill:rgb(74.117649%,74.117649%,74.117649%);fill-opacity:0.392157;stroke-width:3;stroke-linecap:round;stroke-linejoin:miter;stroke:rgb(12.941177%,12.941177%,12.941177%);stroke-opacity:1;stroke-miterlimit:4;" d="M 137.580612 191.179962 C 143.423804 191.179962 148.17335 195.898261 148.17335 201.741453 C 148.17335 207.584645 143.423804 212.334192 137.580612 212.334192 C 131.73742 212.334192 126.987873 207.584645 126.987873 201.741453 C 126.987873 195.898261 131.73742 191.179962 137.580612 191.179962 Z M 137.580612 191.179962 " transform="matrix(0.125012,0,0,0.125012,0,26.877566)"/>
<path style=" stroke:none;fill-rule:nonzero;fill:url(#linear4);" d="M 31.753906 13.730469 C 38.328125 13.730469 43.660156 19.0625 43.660156 25.636719 C 43.660156 32.214844 38.328125 37.546875 31.753906 37.546875 C 25.175781 37.546875 19.84375 32.214844 19.84375 25.636719 C 19.84375 19.0625 25.175781 13.730469 31.753906 13.730469 Z M 31.753906 13.730469 "/>
<path style=" stroke:none;fill-rule:nonzero;fill:rgb(100%,100%,100%);fill-opacity:0.848387;" d="M 31.753906 13.730469 C 25.15625 13.730469 19.84375 19.042969 19.84375 25.636719 C 19.84375 25.75 19.847656 25.859375 19.851562 25.96875 C 20.023438 19.527344 25.265625 14.390625 31.753906 14.390625 C 38.238281 14.390625 43.480469 19.527344 43.65625 25.96875 C 43.660156 25.859375 43.660156 25.75 43.660156 25.636719 C 43.660156 19.042969 38.351562 13.730469 31.753906 13.730469 Z M 31.753906 13.730469 "/>
<path style=" stroke:none;fill-rule:nonzero;fill:rgb(0%,0%,0%);fill-opacity:0.235294;" d="M 31.753906 38.371094 C 25.15625 38.371094 19.84375 33.0625 19.84375 26.464844 C 19.84375 26.355469 19.847656 26.242188 19.851562 26.132812 C 20.023438 32.578125 25.265625 37.710938 31.753906 37.710938 C 38.238281 37.710938 43.480469 32.578125 43.65625 26.132812 C 43.660156 26.242188 43.660156 26.355469 43.660156 26.464844 C 43.660156 33.0625 38.351562 38.371094 31.753906 38.371094 Z M 31.753906 38.371094 "/>
<path style=" stroke:none;fill-rule:nonzero;fill:rgb(12.941177%,12.941177%,12.941177%);fill-opacity:1;" d="M 31.753906 13.578125 C 25.074219 13.578125 19.691406 18.957031 19.691406 25.636719 C 19.691406 32.316406 25.074219 37.699219 31.753906 37.699219 C 38.433594 37.699219 43.8125 32.316406 43.8125 25.636719 C 43.8125 18.957031 38.433594 13.578125 31.753906 13.578125 Z M 31.753906 13.882812 C 38.265625 13.882812 43.507812 19.125 43.507812 25.636719 C 43.507812 32.152344 38.265625 37.390625 31.753906 37.390625 C 25.238281 37.390625 20 32.152344 20 25.636719 C 20 19.125 25.238281 13.882812 31.753906 13.882812 Z M 31.753906 13.882812 "/>
</g>
</svg>
